X:1
T:Cock o' the North
L:1/8
M:6/8
I:linebreak $
K:A
V:1 treble
V:1
 "A"cdc cBA | cde "D"f2 e | "A"cdc cBA | "E"B3 e2 d | $
"A"cdc cBA | Ace "D"f2 e | "A"cAc "G"B=GB | "A"A3 A3 :|$
|: "A"a2 e "D"f2 e |  "A"a2 e "D"f2 e | "A"cdc cBA |"Bm" BcB "E"B2 e | $
"A"a2 e "D"f2 e | "A"a2 e "D"f2 e | "A"cAc "G"B=GB | "A"A3 A3 :|
